X: 4323
T: Handel's Hornpipe
N: Pub: J. Walsh, London, 1748
Z: 2012 John Chambers <jc:trillian.mit.edu>
M: C
L: 1/8
K: G
%
V: 1
d/c/ | BcAB GDDE | FGAB G/F/G/A/ GA | B^cde cAAG | FdE^c d3 :|
|: d | ecce dBgB | cAdc BGGA | BGcA BGGA | BGcA BGGA |
       BGcA A3 (3d/e/f/ | gGeG dGGF | EGDG CAAC | B,GA,F G3 :|
%
V: 2 clef=bass middle=d
   z | zafg G4   | d'bag G2z2 | g2fg  a2A2 | d2aA d3  :|
|: z | c2z2 b2g2 | f2d2  G2z2 | g2f2  g2z2 | g2f2 g2z2 |
       g2c2 d2z2 | b2c'2 b2z2 | c'2b2 a2f2 | g2dD G3  :|
%%begintext align
First Man Set to the 2d Wo. his Partner the same, 1st Man Heys on the contrary
site, and then on his own side, First Wo. the same at the same time, 1st
Cu. cross over, figure in, Right and Left.
%%endtext

%%sep 1 1 500
%%sep 1 1 500

